packages/kaspersky-hexa-ui-icons/src/iconsSVGs/24/LicenseBadge.svg

<svg width="24" height="24" viewBox="0 0 24 24" fill="none" xmlns="http://www.w3.org/2000/svg">
<path fill-rule="evenodd" clip-rule="evenodd" d="M12 2C8.13401 2 5 5.13401 5 9C5 10.9073 5.76281 12.6364 7 13.899V21C7 21.3491 7.18209 21.673 7.4804 21.8544C7.7787 22.0358 8.15003 22.0485 8.46003 21.8879L12.0533 20.0262L15.529 21.8821C15.8389 22.0476 16.213 22.0383 16.5143 21.8576C16.8156 21.6769 17 21.3514 17 21V13.899C18.2372 12.6364 19 10.9073 19 9C19 5.13401 15.866 2 12 2ZM7 9C7 6.23858 9.23858 4 12 4C14.7614 4 17 6.23858 17 9C17 11.7614 14.7614 14 12 14C9.23858 14 7 11.7614 7 9ZM15 15.3264C14.0907 15.7583 13.0736 16 12 16C10.9264 16 9.90926 15.7583 9 15.3264V19.3557L11.6003 18.0084C11.8927 17.857 12.2409 17.8591 12.5313 18.0142L15 19.3324V15.3264Z" fill="black"/>
</svg>

<svg xmlns="http://www.w3.org/2000/svg" width="24" height="24" fill="none" viewBox="0 0 24 24"><path fill="#000" fill-rule="evenodd" d="M12 2C8.134 2 5 5.134 5 9c0 1.9073.7628 3.6364 2 4.899V21a1 1 0 0 0 1.46.8879l3.5933-1.8617 3.4757 1.8559A1 1 0 0 0 17 21v-7.101c1.2372-1.2626 2-2.9917 2-4.899 0-3.866-3.134-7-7-7M7 9c0-2.7614 2.2386-5 5-5s5 2.2386 5 5-2.2386 5-5 5-5-2.2386-5-5m8 6.3264c-.9093.4319-1.9264.6736-3 .6736s-2.0907-.2417-3-.6736v4.0293l2.6003-1.3473a1 1 0 0 1 .931.0058L15 19.3324z"/></svg>
